icons/share-box-fill.svg

<svg viewBox="0 0 24 24" fill="currentColor" xmlns="http://www.w3.org/2000/svg"><path d="M10 3V5H5V19H19V14H21V20C21 20.5523 20.5523 21 20 21H4C3.44772 21 3 20.5523 3 20V4C3 3.44772 3.44772 3 4 3H10ZM17.7071 7.70711L12 13.4142L10.5858 12L16.2929 6.29289L13 3H21V11L17.7071 7.70711Z"/></svg>

<svg xmlns="http://www.w3.org/2000/svg" viewBox="0 0 24 24">
    <g>
        <path fill="none" d="M0 0h24v24H0z"/>
        <path d="M10 3v2H5v14h14v-5h2v6a1 1 0 0 1-1 1H4a1 1 0 0 1-1-1V4a1 1 0 0 1 1-1h6zm7.707 4.707L12 13.414 10.586 12l5.707-5.707L13 3h8v8l-3.293-3.293z"/>
    </g>
</svg>
